X: 11089
T: Ducks In A Row
R: reel
M: 4/4
K: Dmajor
B|:A2FD EDFA|(3Bcd ef gfef|d2B2 BAFA|(3Bcd AF EDB,B|
A2FD EDFA|(3Bcd ef gfef|a3e fedB|1 Aafd eddB:|2 Aafd eddf||
|:a2fe fddf|fgfg edBe|defe dBAF|
[1 EDFA BA3|a2fe fddf|fgfg edBe|defe dBAF|EDaf eddf:|
[2 EDFA BAdB|A2FD EDFA|(3Bcd ef gfef|a3e fedB|Aafd eddB||

